X: 35168
T: Ronnie Power's
R: jig
M: 6/8
K: Gminor
G|:dGG BcB|ABc AGF|GAB cde|fdB ABc|
dGG BcB|ABc AGF|GAB cde|1 dBA G2G:|2 dBA G2d||
|:gfg agf|dcd fd(3f/g/a/|bag fdc|Bcd fdf|
gfg agf|dcd f2c|Bcd fdc|1 BGF GBd:|2 BGF G3||

